X:10
T:Eoghan Dubh
C:Kinnon Beaton
R:reel
D:Eoghan Dubh, Kinnon Beaton
Z:Paul Stewart Cranford (P.S.C.), <http://www.cranfordpub.com>
Q:333
L:1/8
M:C|
K:D
A|BFFB AFEF|D/D/D fe fBBd|A/A/A FA fgfe|dBAd FEEA|
BFFB AFEF|D/D/D fe fBBd|A/A/A FA fgfe|dBAF D/D/D D:|
|:f|afef dBAB|d/d/d fe fBBd|A/A/A Ad B/B/B Bd|e/e/e fe dB B2|
[1afef dBAB|d/d/d fe fBBd|A/A/A Af edef|dBAF D/D/D D:|
[2BFFB AFEF|D/D/D fe fBBd|A/A/A FA fgfe|dBAF D/D/D D|]
